!!!COM: Gaspar van Weerbeke
!!!CDT: ~1450-~1517
!!!OTL: Ave stella matutina
!!!AGN: Motet
!!!SCT: Gas0408
!!!SCA: Gas0408
!!!voices: 4
**kern	**text	**kern	**text	**kern	**text	**kern	**text
*part4	*part4	*part3	*part3	*part2	*part2	*part1	*part1
*staff4	*staff4	*staff3	*staff3	*staff2	*staff2	*staff1	*staff1
*I"Bassus	*	*I"Tenor	*	*I"Altus	*	*I"Superius	*
*I'B	*	*I'T	*	*I'A	*	*I'S	*
*clefF4	*	*clefGv2	*	*clefGv2	*	*clefG2	*
*k[]	*	*k[]	*	*k[]	*	*k[]	*
*M2/2	*	*M2/2	*	*M2/2	*	*M2/2	*
*met(C|)	*	*met(C|)	*	*met(C|)	*	*met(C|)	*
=1	=1	=1	=1	=1	=1	=1	=1
1r	.	2.A	A-	1r	.	2a	A-
.	.	.	.	.	.	4a	.
.	.	4A	-ve	.	.	4a	-ve
=2	=2	=2	=2	=2	=2	=2	=2
1r	.	2c	stel-	1r	.	2a	stel-
.	.	2B	-la	.	.	2g	-la
=3	=3	=3	=3	=3	=3	=3	=3
1r	.	2A	ma-	1r	.	2cc	ma-
.	.	2d	-tu-	.	.	4b	-tu-
.	.	.	.	.	.	[4b	-ti-
=4	=4	=4	=4	=4	=4	=4	=4
1r	.	2e	-ti-	1r	.	8b]L	.
.	.	.	.	.	.	8a	.
.	.	.	.	.	.	8g	.
.	.	.	.	.	.	8fJ	.
.	.	4c	.	.	.	4e	.
.	.	4d	.	.	.	[4a	.
=5	=5	=5	=5	=5	=5	=5	=5
1r	.	2B	.	1r	.	4a]	.
.	.	.	.	.	.	4g#i	.
.	.	2A	-na,	.	.	2a	-na,
!!LO:LB:g=original
=6	=6	=6	=6	=6	=6	=6	=6
2.AA	Vi-	1r	.	2.A	Vi-	1r	.
4AA	-ta	.	.	4A	-ta	.	.
=7	=7	=7	=7	=7	=7	=7	=7
2C	no-	1r	.	2A	no-	1r	.
2BB	-stra,	.	.	2G	-stra,	.	.
=8	=8	=8	=8	=8	=8	=8	=8
2AA	lux	1r	.	2c	lux	1r	.
2D	di-	.	.	4B	di-	.	.
.	.	.	.	[4B	-vi-	.	.
=9	=9	=9	=9	=9	=9	=9	=9
2E	-vi-	1r	.	8B]L	.	1r	.
.	.	.	.	8A	.	.	.
.	.	.	.	8G	.	.	.
.	.	.	.	8FJ	.	.	.
4C	.	.	.	4E	.	.	.
4D	.	.	.	[4A	.	.	.
=10	=10	=10	=10	=10	=10	=10	=10
2BB	.	1r	.	4A]	.	1r	.
.	.	.	.	4G#i	.	.	.
2AA	-na,	.	.	2A	-na,	.	.
=11	=11	=11	=11	=11	=11	=11	=11
2.AA	lu-	2.A	lu-	2.c	lu-	2.e	lu-
4AA	-cens	4A	-cens	4c	-cens	4e	-cens
!!LO:LB:g=original
=12	=12	=12	=12	=12	=12	=12	=12
2E	o-	4G	o-	2B	o-	2g	o-
.	.	4B	.	.	.	.	.
4A	-mne	4c	-mne	4A	-mne	4a	-mne
[4G	se-	[4d	se-	[4g	se-	[4b	se-
=13	=13	=13	=13	=13	=13	=13	=13
4G]	.	4d]	.	8g]L	.	4b]	.
.	.	.	.	8fJ	.	.	.
4A	.	4c	.	2e	.	2a	.
2E	-cu-	2B	-cu-	.	.	.	.
.	.	.	.	4e	-cu-	4g#i	-cu-
=14	=14	=14	=14	=14	=14	=14	=14
1AA	-lum,	1A	-lum,	1e	-lum,	1a	-lum,
=15	=15	=15	=15	=15	=15	=15	=15
1r	.	2.e	nos	1r	.	2.cc	nos
.	.	4d	de-	.	.	4b	de-
=16	=16	=16	=16	=16	=16	=16	=16
1r	.	2c	-fen-	1r	.	2a	-fen-
.	.	4B	-de	.	.	4g	-de
.	.	4c	a	.	.	4a	a
=17	=17	=17	=17	=17	=17	=17	=17
1r	.	4B	ru-	1r	.	4g	ru-
.	.	4.c	-i-	.	.	4.a	-i-
.	.	8BL	.	.	.	8gL	.
.	.	8A	.	.	.	8f#i	.
.	.	8GJ	.	.	.	8eJ	.
!!LO:LB:g=original
=18	=18	=18	=18	=18	=18	=18	=18
1r	.	2A	.	1r	.	2f#i	.
.	.	2G	-na,	.	.	2g	-na,
=19	=19	=19	=19	=19	=19	=19	=19
2.C	que	1r	.	2.e	que	1r	.
4D	es	.	.	4d	es	.	.
=20	=20	=20	=20	=20	=20	=20	=20
2E	no-	1r	.	2c	no-	1r	.
4D	-stra	.	.	4B	-stra	.	.
4E	me-	.	.	4c	me-	.	.
=21	=21	=21	=21	=21	=21	=21	=21
4D	-di-	1r	.	4B	-di-	1r	.
4.F	-ci-	.	.	4.d	-ci-	.	.
8EL	.	.	.	8cL	.	.	.
8D	.	.	.	8B	.	.	.
8CJ	.	.	.	8AJ	.	.	.
=22	=22	=22	=22	=22	=22	=22	=22
2D	.	1r	.	2B	.	1r	.
2C	-na	.	.	2c	-na	.	.
=23	=23	=23	=23	=23	=23	=23	=23
2.C	pec-	2.c	pec-	2.e	pec-	2.g	pec-
4C	-ca-	4c	-ca-	4e	-ca-	4g	-ca-
!!LO:PB:g=original
=24	=24	=24	=24	=24	=24	=24	=24
2F	-to-	2c	-to-	2f	-to-	2a	-to-
2C	-rum	4c	-rum	4e	-rum	4g	-rum
.	.	4c	o-	[4g	o-	[4cc	o-
=25	=25	=25	=25	=25	=25	=25	=25
4G	o-	2d	-mni-	4g]	.	4cc]	.
4G	-mni-	.	.	4g	-mni-	4b	-mni-
2C	-um.	2c	-um.	2e	-um.	2cc	-um.
=26||	=26||	=26||	=26||	=26||	=26||	=26||	=26||
*M3/2	*	*M3/2	*	*M3/2	*	*M3/2	*
*met(3)	*	*met(3)	*	*met(3)	*	*met(3)	*
!!LO:TX:t=[whole]=[whole-dot]
!!LO:TX:a:t=[3]
1.r	.	1B	Au-	1.r	.	1g	Au-
.	.	2B	-res	.	.	2g	-res
=27	=27	=27	=27	=27	=27	=27	=27
1.r	.	1c	tu-	1.r	.	1a	tu-
.	.	2B	-as	.	.	2g	-as
=28	=28	=28	=28	=28	=28	=28	=28
*	*	*col	*	*	*	*col	*
1.r	.	2A	nunc	1.r	.	2f	nunc
.	.	2G	in-	.	.	2e	in-
.	.	[2F	-cli-	.	.	[2d	-cli-
=29	=29	=29	=29	=29	=29	=29	=29
1.r	.	2F]	.	1.r	.	2d]	.
.	.	1E	-na,	.	.	1e	-na,
*	*	*Xcol	*	*	*	*Xcol	*
!!LO:LB:g=original
=30	=30	=30	=30	=30	=30	=30	=30
1G	Cum	1.r	.	1e	Cum	1.r	.
4G	pi-	.	.	4e	pi-	.	.
4G	-e-	.	.	4e	-e-	.	.
=31	=31	=31	=31	=31	=31	=31	=31
1A	-ta-	1.r	.	1f	-ta-	1.r	.
2G	-tis	.	.	2e	-tis	.	.
=32	=32	=32	=32	=32	=32	=32	=32
*col	*	*	*	*col	*	*	*
2F	sis	1.r	.	2d	sis	1.r	.
2E	re-	.	.	2c	re-	.	.
[2D	-gi-	.	.	[2B	-gi-	.	.
=33	=33	=33	=33	=33	=33	=33	=33
2D]	.	1.r	.	2B]	.	1.r	.
1C	-na,	.	.	1c	-na,	.	.
*Xcol	*	*	*	*Xcol	*	*	*
=34	=34	=34	=34	=34	=34	=34	=34
1C	au-	1c	au-	1e	au-	1g	au-
2C	-di	2c	-di	2e	-di	2g	-di
=35	=35	=35	=35	=35	=35	=35	=35
*col	*	*col	*	*	*	*	*
1F	no-	1c	no-	1f	no-	1a	no-
[2C	-stra	[2c	-stra	2e	-stra	2g	-stra
=36	=36	=36	=36	=36	=36	=36	=36
2C]	.	2c]	.	1g	can-	1cc	can-
2G	can-	2d	can-	.	.	.	.
2G	-ti-	2d	-ti-	2g	-ti-	2b	-ti-
*Xcol	*	*Xcol	*	*	*	*	*
!!LO:LB:g=original
=37	=37	=37	=37	=37	=37	=37	=37
1.C	-ca,	1.c	-ca,	1.e	-ca,	1.cc	-ca,
=38	=38	=38	=38	=38	=38	=38	=38
1.r	.	1c	qui-	1.r	.	1e	qui-
.	.	2c	-bus	.	.	2e	-bus
=39	=39	=39	=39	=39	=39	=39	=39
1.r	.	1c	ti-	1.r	.	1e	ti-
.	.	2B	-bi	.	.	2g	-bi
=40	=40	=40	=40	=40	=40	=40	=40
*	*	*col	*	*	*	*col	*
1.r	.	2c	no-	1.r	.	2a	no-
.	.	2B	-stros	.	.	2g	-stros
.	.	[2A	du-	.	.	[2cc	du-
=41	=41	=41	=41	=41	=41	=41	=41
1.r	.	2A]	.	1.r	.	2cc]	.
.	.	1G	-ces	.	.	1b	-ces
*	*	*Xcol	*	*	*	*Xcol	*
=42	=42	=42	=42	=42	=42	=42	=42
1C	sup-	1.r	.	1E	sup-	1.r	.
2C	-pli-	.	.	2E	-pli-	.	.
=43	=43	=43	=43	=43	=43	=43	=43
1C	-ca-	1.r	.	1E	-ca-	1.r	.
2BB	-mus	.	.	2G	-mus	.	.
!!LO:LB:g=original
=44	=44	=44	=44	=44	=44	=44	=44
*col	*	*	*	*col	*	*	*
2C	i-	1.r	.	2A	i-	1.r	.
2BB	-ta	.	.	2G	-ta	.	.
[2AA	du-	.	.	[2c	du-	.	.
=45	=45	=45	=45	=45	=45	=45	=45
2AA]	.	1.r	.	2c]	.	1.r	.
1GG	-ces	.	.	1B	-ces	.	.
*Xcol	*	*	*	*Xcol	*	*	*
=46	=46	=46	=46	=46	=46	=46	=46
1.r	.	1e	o-	1.r	.	1cc	o-
.	.	2e	-mni	.	.	2cc	-mni
=47	=47	=47	=47	=47	=47	=47	=47
1.r	.	2.f	cum	1.r	.	2.dd	cum
.	.	4e	.	.	.	4cc	.
.	.	2d	.	.	.	2b	.
=48	=48	=48	=48	=48	=48	=48	=48
1.r	.	2c	fa-	1.r	.	2a	fa-
.	.	2B	-mi-	.	.	2a	-mi-
.	.	2B	-li-	.	.	2g#i	-li-
=49	=49	=49	=49	=49	=49	=49	=49
1.r	.	1.A	-a.	1.r	.	1.a	-a.
=50	=50	=50	=50	=50	=50	=50	=50
1E	o-	1.r	.	1c	o-	1.r	.
2E	-mni	.	.	2c	-mni	.	.
!!LO:PB:g=original
=51	=51	=51	=51	=51	=51	=51	=51
2.F	cum	1.r	.	2.d	cum	1.r	.
4E	.	.	.	4c	.	.	.
2D	.	.	.	2B	.	.	.
=52	=52	=52	=52	=52	=52	=52	=52
2C	fa-	1.r	.	2A	fa-	1.r	.
2BB	-mi-	.	.	2A	-mi-	.	.
2BB	-li-	.	.	2G#i	-li-	.	.
=53	=53	=53	=53	=53	=53	=53	=53
*	*	*	*	*lig	*	*	*
2.AA	-a,	1.r	.	2A	-a,	1.r	.
.	.	.	.	2.c	.	.	.
*	*	*	*	*Xlig	*	*	*
4BB	.	.	.	.	.	.	.
2C	.	.	.	.	.	.	.
.	.	.	.	4B	.	.	.
=54	=54	=54	=54	=54	=54	=54	=54
2D	.	1.r	.	2.B	.	1.r	.
1E	.	.	.	.	.	.	.
.	.	.	.	4A	.	.	.
.	.	.	.	4G	.	.	.
.	.	.	.	4F	.	.	.
=55	=55	=55	=55	=55	=55	=55	=55
*	*edit	*	*	*	*edit	*	*
2.C	fa-	1.r	.	2.E	fa-	1.r	.
4D	.	.	.	4F	.	.	.
2E	.	.	.	2G	.	.	.
=56	=56	=56	=56	=56	=56	=56	=56
2C	-mi-	1.r	.	1A	-mi-	1.r	.
1BB	-li-	.	.	.	.	.	.
.	.	.	.	2G#i	-li-	.	.
=57	=57	=57	=57	=57	=57	=57	=57
1AA	-a.	1c	Ut	1A	-a.	1e	Ut
2r	.	2B	du-	2r	.	2g	du-
!!LO:LB:g=original
=58	=58	=58	=58	=58	=58	=58	=58
1.r	.	1c	-cen-	1.r	.	1a	-cen-
.	.	2B	-do	.	.	2g	-do
=59	=59	=59	=59	=59	=59	=59	=59
*	*	*col	*	*	*	*col	*
1.r	.	2A	sem-	1.r	.	2cc	sem-
.	.	2G	-per	.	.	2b	-per
.	.	[2c	tu-	.	.	[2a	tu-
=60	=60	=60	=60	=60	=60	=60	=60
1.r	.	4c]	.	1.r	.	2a]	.
.	.	4d	.	.	.	.	.
.	.	1e	-i,	.	.	1g	-i,
*	*	*Xcol	*	*	*	*Xcol	*
=61	=61	=61	=61	=61	=61	=61	=61
*	*Xedit	*	*	*	*Xedit	*	*
1C	Sint	1.r	.	1E	Sint	1.r	.
2BB	et	.	.	2G	et	.	.
=62	=62	=62	=62	=62	=62	=62	=62
1C	pos-	1.r	.	1A	pos-	1.r	.
2BB	-sint	.	.	2G	-sint	.	.
=63	=63	=63	=63	=63	=63	=63	=63
*col	*	*	*	*col	*	*	*
2AA	post	1.r	.	2c	post	1.r	.
2GG	hec	.	.	2B	hec	.	.
[2C	du-	.	.	[2A	du-	.	.
=64	=64	=64	=64	=64	=64	=64	=64
4C]	.	1.r	.	2A]	.	1.r	.
4D	.	.	.	.	.	.	.
1E	-ci,	.	.	1G	-ci,	.	.
*Xcol	*	*	*	*Xcol	*	*	*
!!LO:LB:g=original
=65	=65	=65	=65	=65	=65	=65	=65
1E	te-	1.r	.	1c	te-	1.r	.
2E	-cum	.	.	2c	-cum	.	.
=66	=66	=66	=66	=66	=66	=66	=66
2.F	ad	1.r	.	2.d	ad	1.r	.
4E	.	.	.	4c	.	.	.
2D	.	.	.	2B	.	.	.
=67	=67	=67	=67	=67	=67	=67	=67
2C	ce-	1.r	.	2A	ce-	1.r	.
2BB	-le-	.	.	2A	-le-	.	.
2BB	-sti-	.	.	2G#i	-sti-	.	.
=68	=68	=68	=68	=68	=68	=68	=68
1AA	-a,	1e	te-	1A	-a,	1cc	te-
*	*edit	*	*	*	*	*	*
2A	ad	2e	-cum	2r	.	2cc	-cum
=69	=69	=69	=69	=69	=69	=69	=69
*	*	*	*	*	*edit	*	*
*lig	*	*	*	*	*	*	*
2F	ce-	2.f	ad	1A	te-	2.dd	ad
2D	.	.	.	.	.	.	.
*Xlig	*	*	*	*	*	*	*
.	.	4e	.	.	.	4cc	.
2G	.	2d	.	2B	-cum	2b	.
=70	=70	=70	=70	=70	=70	=70	=70
2A	-le-	2c	ce-	4c	ad	2a	ce-
.	.	.	.	4d	.	.	.
1E	-sti-	2B	-le-	1e	.	2a	-le-
.	.	2B	-sti-	.	.	2g#i	-sti-
!!LO:LB:g=original
=71	=71	=71	=71	=71	=71	=71	=71
*	*	*	*	*lig	*	*	*
2.F	-a,	2.A	-a,	2c	ce-	2a	-a,
.	.	.	.	2f	.	2.cc	.
*	*	*	*	*Xlig	*	*	*
4G	.	4B	.	.	.	.	.
2A	.	2c	.	2e	-le-	.	.
.	.	.	.	.	.	4b	.
=72	=72	=72	=72	=72	=72	=72	=72
2.G	.	1d	.	1g	-sti-	2.b	.
4F	.	.	.	.	.	4a	.
4E	.	4c	.	2g	-a,	4g	.
4D	.	4B	.	.	.	4f	.
=73	=73	=73	=73	=73	=73	=73	=73
*	*	*	*edit	*	*	*	*edit
*	*	*col	*	*	*	*	*
2.C	ce-	1c	ce-	2.g	ce-	2.e	ce-
4D	.	.	.	4f	.	4f	.
2E	.	2B	-le-	2e	.	2g	.
=74	=74	=74	=74	=74	=74	=74	=74
2F	-le-	2A	.	2d	-le-	1a	-le-
1E	-sti-	1B	-sti-	1e	-sti-	.	.
*	*	*Xcol	*	*	*	*	*
.	.	.	.	.	.	2g#i	-sti-
=75	=75	=75	=75	=75	=75	=75	=75
*M2/2	*	*M2/2	*	*M2/2	*	*M2/2	*
*met(C|)	*	*met(C|)	*	*met(C|)	*	*met(C|)	*
!!LO:TX:t=[whole-dot]=[whole]
2.AA	-a.	2A	-a.	2c	-a.	2a	-a.
.	.	2r	.	4r	.	2r	.
*	*Xedit	*	*	*	*Xedit	*	*
4E	O	.	.	4c	O	.	.
=76	=76	=76	=76	=76	=76	=76	=76
4D	glo-	1r	.	4B	glo-	1r	.
4C	-ri-	.	.	4A	-ri-	.	.
2BB	-o-	.	.	2G#i	-o-	.	.
!!LO:PB:g=original
=77	=77	=77	=77	=77	=77	=77	=77
2AA	-sa,	4r	.	2A	-sa,	4r	.
*	*	*	*Xedit	*	*	*	*Xedit
.	.	4e	O	.	.	4cc	O
2r	.	4d	glo-	2r	.	4b	glo-
.	.	4c	-ri-	.	.	4a	-ri-
=78	=78	=78	=78	=78	=78	=78	=78
2r	.	2B	-o-	2r	.	2g#i	-o-
4r	.	2A	-sa,	4r	.	2a	-sa,
4C	O	.	.	4e	O	.	.
=79	=79	=79	=79	=79	=79	=79	=79
4BB	be-	1r	.	4d	be-	1r	.
4AA	-ne-	.	.	4c	-ne-	.	.
2GG#i	-di-	.	.	2B	-di-	.	.
=80	=80	=80	=80	=80	=80	=80	=80
2AA	-cta,	4r	.	2A	-cta,	4r	.
.	.	4c	ce-	.	.	4ee	ce-
2r	.	4B	-li	2r	.	4dd	-li
.	.	4A	re-	.	.	4cc	re-
=81	=81	=81	=81	=81	=81	=81	=81
1r	.	2G#i	-gi-	1r	.	2b	-gi-
.	.	2A	-na,	.	.	2a	-na,
=82	=82	=82	=82	=82	=82	=82	=82
1AA	au-	1c	au-	1e	au-	1a	au-
!!LO:LB:g=original
=83	=83	=83	=83	=83	=83	=83	=83
2E	-di,	2B	-di,	2e	-di,	2g	-di,
2E	ex-	2B	ex-	2e	ex-	2g	ex-
=84	=84	=84	=84	=84	=84	=84	=84
1C	-au-	1c	-au-	1g	-au-	1cc	-au-
=85	=85	=85	=85	=85	=85	=85	=85
1GG	-di	1d	-di	1g	-di	1b	-di
=86	=86	=86	=86	=86	=86	=86	=86
1C	nos,	1c	nos,	1G	nos,	1e	nos,
=87	=87	=87	=87	=87	=87	=87	=87
4r	.	1r	.	2c	vir-	1r	.
4E	vir-	.	.	.	.	.	.
4D	-go	.	.	4B	-go	.	.
4C	Ma-	.	.	4A	Ma-	.	.
=88	=88	=88	=88	=88	=88	=88	=88
2BB	-ri-	2r	.	2G#i	-ri-	2r	.
2AA	-a,	4r	.	2A	-a,	4r	.
.	.	4e	vir-	.	.	4cc	vir-
!!LO:LB:g=original
=89	=89	=89	=89	=89	=89	=89	=89
*	*edit	*	*	*	*edit	*	*
4G	vir-	4d	-go	4B	vir-	4b	-go
4A	-go	4c	Ma-	4c	-go	4a	Ma-
2E	Ma-	4B	-ri-	[2e	Ma-	4.g	-ri-
.	.	[4c	.	.	.	.	.
.	.	.	.	.	.	8f	.
=90	=90	=90	=90	=90	=90	=90	=90
4C	-ri-	4c]	.	4e]	.	4e	.
4F	.	4A	.	4d	-ri-	2a	.
2E	.	2B	.	2e	.	.	.
.	.	.	.	.	.	4g#i	.
=91	=91	=91	=91	=91	=91	=91	=91
2F	-a.	2.A	-a.	4.c	-a.	4a	-a.
.	.	.	.	.	.	2cc	.
.	.	.	.	8d	.	.	.
4r	.	.	.	4e	.	.	.
*	*Xedit	*	*	*	*	*	*
4F	A-	4c	.	4f	.	8bL	.
.	.	.	.	.	.	8aJ	.
=92	=92	=92	=92	=92	=92	=92	=92
4G	.	4B	.	4d	.	4g	.
4A	.	4A	.	4c	.	2cc	A-
*	*	*	*	*	*Xedit	*	*
4E	.	4e	A-	[2g	A-	.	.
*	*	*	*	*	*	*lig	*
[4G	.	[4d	.	.	.	[4b	.
=93	=93	=93	=93	=93	=93	=93	=93
4G]	.	4d]	.	4g]	.	4b]	.
4A	.	4c	.	2.e	.	2a	.
*	*	*	*	*	*	*Xlig	*
2E	.	2B	.	.	.	.	.
.	.	.	.	.	.	4g#i	.
=94	=94	=94	=94	=94	=94	=94	=94
1AAl	-men.	1Al	-men.	1el	-men.	1al	-men.
==	==	==	==	==	==	==	==
*-	*-	*-	*-	*-	*-	*-	*-
!!!system-decoration: [*]
!!!RDF**kern: j = editorial accidental, optional, paren up
!!!RDF**kern: i = editorial accidental
!!!RDF**kern: l = terminal breve
!!!PTL: Gaspar van Weerbeke: Collected Works. IV. Motets
!!!PPR: American Institute of Musicology
!!!PC#: Corpus Mensurabilis Musicae 106/IV
!!!PDT: 2010
!!!PED: Pavanello, Agnese
!!!YEC: Copyright 2010, Pavanello, Agnese
!!!YEM: CC-BY-SA 4.0 (https://creativecommons.org/licenses/by-nc/4.0/legalcode)
!!!EED: Mair-Gruber, Roland
!!!EEV: 2021/08/16
